build/images/icons-category/icon-game.svg

<svg width="43" height="32" viewBox="0 0 43 32" fill="none" xmlns="http://www.w3.org/2000/svg">
<path d="M41.945 17.4958C40.3556 11.3576 37.5136 5.60038 37.2021 4.97841C37.1677 4.89452 37.0918 4.58089 37.0366 4.3519C36.748 3.15555 36.5575 2.46858 36.0038 2.25546L30.5218 0.146185C29.8349 -0.120592 29.0421 -0.0140324 28.4519 0.402382C27.8216 0.828621 27.1118 1.24655 26.8848 1.32892H24.0872C24.09 1.8655 24.0929 2.23052 24.0958 2.35598C24.123 2.52375 24.1366 2.69304 24.1366 2.86308C24.1366 3.67022 23.8394 4.42898 23.3 5.00032C22.7607 5.57091 22.0438 5.8853 21.2803 5.8853C21.1177 5.8853 20.9508 5.87094 20.7832 5.83995C19.6494 5.6359 18.7262 4.69727 18.4877 3.5032C18.4068 3.09812 18.4017 2.69228 18.4748 2.29552C18.4769 2.16704 18.4798 1.82469 18.4827 1.32817H16.3039C16.0439 1.24806 15.1887 0.784788 14.5613 0.40994C13.9532 -0.0193225 13.1668 -0.118325 12.4799 0.145429L6.9972 2.25471C6.44356 2.46783 6.25304 3.1548 5.96368 4.35114C5.90853 4.58089 5.83261 4.89376 5.8054 4.96254C5.48667 5.59963 2.64467 11.3584 1.05535 17.495C-0.83263 24.7857 -0.185158 29.5574 2.97915 31.6765C3.70541 32.1632 4.72389 32.0748 5.3864 31.4725L11.9055 25.5573C12.6977 24.8386 13.709 24.4426 14.7533 24.4426H28.2471C29.2906 24.4426 30.3026 24.8378 31.0948 25.5573L37.6139 31.4725C37.9885 31.8126 38.4655 32 38.9583 32C39.3372 32 39.7053 31.8881 40.0212 31.6758C43.1855 29.5582 43.8322 24.7872 41.945 17.4958ZM6.99362 9.32922C6.99362 7.24564 8.59583 5.5505 10.5647 5.5505C12.5337 5.5505 14.1359 7.24564 14.1359 9.32922C14.1359 11.4128 12.5337 13.1079 10.5647 13.1079C8.59583 13.1079 6.99362 11.4128 6.99362 9.32922ZM21.4321 17.5955C21.4321 18.3097 20.8828 18.8916 20.2074 18.8916H18.5751V20.6185C18.5751 21.3327 18.0257 21.9146 17.3503 21.9146H15.5139C14.8385 21.9146 14.2891 21.3327 14.2891 20.6185V18.8916H12.6569C11.9815 18.8916 11.4321 18.3097 11.4321 17.5955V15.6533C11.4321 14.9391 11.9815 14.3572 12.6569 14.3572H14.2891V12.6303C14.2891 11.9161 14.8385 11.3342 15.5139 11.3342H17.3503C18.0257 11.3342 18.5751 11.9161 18.5751 12.6303V14.3572H20.2074C20.8828 14.3572 21.4321 14.9391 21.4321 15.6533V17.5955ZM31.9929 4.79476C32.7815 4.79476 33.4211 5.47191 33.4211 6.30625C33.4211 7.14059 32.7815 7.81773 31.9929 7.81773C31.2036 7.81773 30.5641 7.14059 30.5641 6.30625C30.5641 5.47191 31.2036 4.79476 31.9929 4.79476ZM29.1359 7.81773C29.9252 7.81773 30.5641 8.49488 30.5641 9.32922C30.5641 10.1636 29.9245 10.8407 29.1359 10.8407C28.3466 10.8407 27.7077 10.1636 27.7077 9.32922C27.7077 8.49488 28.3466 7.81773 29.1359 7.81773ZM26.9929 20.6654C25.024 20.6654 23.4218 18.9702 23.4218 16.8867C23.4218 14.8031 25.024 13.1079 26.9929 13.1079C28.9618 13.1079 30.5641 14.8031 30.5641 16.8867C30.5641 18.9702 28.9618 20.6654 26.9929 20.6654ZM31.9929 13.8637C31.2036 13.8637 30.5641 13.1865 30.5641 12.3522C30.5641 11.5179 31.2036 10.8407 31.9929 10.8407C32.7815 10.8407 33.4211 11.5179 33.4211 12.3522C33.4211 13.1865 32.7815 13.8637 31.9929 13.8637ZM34.85 10.8407C34.0607 10.8407 33.4218 10.1636 33.4218 9.32922C33.4218 8.49488 34.0614 7.81773 34.85 7.81773C35.6393 7.81773 36.2781 8.49488 36.2781 9.32922C36.2781 10.1636 35.6386 10.8407 34.85 10.8407Z" fill="white"/>
<path d="M10.5655 11.5964C11.749 11.5964 12.7084 10.5814 12.7084 9.32922C12.7084 8.07706 11.749 7.06199 10.5655 7.06199C9.38194 7.06199 8.4225 8.07706 8.4225 9.32922C8.4225 10.5814 9.38194 11.5964 10.5655 11.5964Z" fill="white"/>
<path d="M17.1462 12.8457H15.718V15.8687H12.861V17.3801H15.718V20.4031H17.1462V17.3801H20.0032V15.8687H17.1462V12.8457Z" fill="white"/>
<path d="M21.0217 4.35038C21.5052 4.43956 21.96 4.27934 22.2894 3.9317C22.5587 3.64603 22.7077 3.26665 22.7077 2.86308C22.7077 2.7671 22.6991 2.67339 22.6819 2.5827C22.6705 2.52073 22.6655 2.48899 22.6576 1.32892H19.9094C19.9022 2.45196 19.8958 2.48597 19.8822 2.54945C19.8392 2.75577 19.8399 2.97266 19.8829 3.19107C20.0011 3.77375 20.4688 4.25138 21.0217 4.35038Z" fill="white"/>
<path d="M26.9929 19.1539C28.1765 19.1539 29.1359 18.1388 29.1359 16.8867C29.1359 15.6345 28.1765 14.6194 26.9929 14.6194C25.8094 14.6194 24.85 15.6345 24.85 16.8867C24.85 18.1388 25.8094 19.1539 26.9929 19.1539Z" fill="white"/>
</svg>

<svg width="43" height="32" fill="none" xmlns="http://www.w3.org/2000/svg"><path d="M41.945 17.496c-1.59-6.138-4.431-11.896-4.743-12.518a8.027 8.027 0 01-.165-.626c-.289-1.196-.48-1.883-1.033-2.097L30.522.146a2.231 2.231 0 00-2.07.256c-.63.427-1.34.845-1.567.927h-2.798c.003.536.006.902.009 1.027.027.168.04.337.04.507 0 .807-.297 1.566-.836 2.137a2.76 2.76 0 01-2.517.84c-1.134-.204-2.057-1.143-2.295-2.337a3.188 3.188 0 01-.013-1.207c.002-.129.005-.471.008-.968h-2.18c-.26-.08-1.114-.543-1.742-.918A2.235 2.235 0 0012.48.145l-5.483 2.11c-.553.213-.744.9-1.033 2.096a9.63 9.63 0 01-.159.612c-.318.637-3.16 6.395-4.75 12.532-1.888 7.29-1.24 12.062 1.924 14.181.726.487 1.745.399 2.407-.203l6.52-5.916a4.238 4.238 0 012.847-1.114h13.494c1.044 0 2.056.395 2.848 1.114l6.519 5.916a2 2 0 001.344.527 1.9 1.9 0 001.063-.324c3.164-2.118 3.811-6.889 1.924-14.18zM6.994 9.329c0-2.083 1.602-3.779 3.57-3.779 1.97 0 3.572 1.696 3.572 3.78 0 2.083-1.602 3.778-3.571 3.778-1.97 0-3.571-1.695-3.571-3.779zm14.438 8.267c0 .714-.55 1.296-1.225 1.296h-1.632v1.727c0 .714-.55 1.296-1.225 1.296h-1.836c-.675 0-1.225-.582-1.225-1.296v-1.727h-1.632c-.675 0-1.225-.582-1.225-1.296v-1.943c0-.714.55-1.296 1.225-1.296h1.632V12.63c0-.714.55-1.296 1.225-1.296h1.836c.676 0 1.225.582 1.225 1.296v1.727h1.632c.676 0 1.225.582 1.225 1.296v1.943zm10.56-12.801c.79 0 1.43.677 1.43 1.511 0 .835-.64 1.512-1.43 1.512-.788 0-1.428-.677-1.428-1.512 0-.834.64-1.511 1.429-1.511zm-2.856 3.023c.79 0 1.428.677 1.428 1.511 0 .835-.64 1.512-1.428 1.512-.79 0-1.428-.677-1.428-1.512 0-.834.639-1.511 1.428-1.511zm-2.143 12.847c-1.969 0-3.571-1.695-3.571-3.778 0-2.084 1.602-3.78 3.57-3.78 1.97 0 3.572 1.696 3.572 3.78 0 2.083-1.602 3.778-3.571 3.778zm5-6.801c-.79 0-1.429-.678-1.429-1.512s.64-1.511 1.429-1.511 1.428.677 1.428 1.511c0 .835-.64 1.512-1.428 1.512zm2.857-3.023c-.79 0-1.428-.677-1.428-1.512 0-.834.64-1.511 1.428-1.511.79 0 1.428.677 1.428 1.511 0 .835-.64 1.512-1.428 1.512z" fill="#fff"/><path d="M10.566 11.596c1.183 0 2.142-1.015 2.142-2.267s-.959-2.267-2.143-2.267c-1.183 0-2.143 1.015-2.143 2.267s.96 2.267 2.143 2.267zm6.58 1.25h-1.428v3.023h-2.857v1.511h2.857v3.023h1.428V17.38h2.857v-1.51h-2.857v-3.023zm3.876-8.496a1.37 1.37 0 001.267-.418 1.55 1.55 0 00.393-1.35c-.011-.061-.016-.093-.024-1.253h-2.749c-.007 1.123-.013 1.157-.027 1.22a1.612 1.612 0 000 .642c.12.583.587 1.06 1.14 1.16zm5.971 14.804c1.184 0 2.143-1.015 2.143-2.267 0-1.253-.96-2.268-2.143-2.268-1.184 0-2.143 1.015-2.143 2.268 0 1.252.96 2.267 2.143 2.267z" fill="#fff"/></svg>
